X: 0811
T: LADY MURRAY'S REEL
B: Oliver Ditson "The Boston Collection of Instrumental Music" 1910 p.81 #1
F: http://conquest.imslp.info/files/imglnks/usimg/8/8f/IMSLP175643-PMLP309456-bostoncollection00bost_bw.pdf
%: 2012 John Chambers <jc:trillian.mit.edu>
M: 4/4
L: 1/8
K: Amix
e |\
cA A/A/A EAAc | BGdB gded |\
cA A/A/A EAAc | BG gB A/A/A A :|
g |\
agab abae | gaeg BGdB |\
agab abae | degB A/A/A A ||
g |\
abga egdg | Bgdg BGdB |\
cAdB dega | gegB A/A/A A |]

%%sep 1 1 500
%%sep 1 1 500
